X: 0132
T: the Merry Oddfellows - 8x32J
P: Haddo House
C: Nan Main
B: Miss Milligan's Miscellany v.1 #0132
B: Originally Ours v.1 p.177 #MMM-0132
Z: 2020 John Chambers <jc:trillian.mit.edu>
M: 6/8
L: 1/8
R: jig
K: D
%
a |:\
"D"faf "E7"eBd | "A"c3 "E/A"A2c | "G#/E"d2b "A"c2a | "E"B3- "E7"B2c |\
"F#/D"d2e "D"fed | "E"c2e "C#/A"a2g | "D"fga "D#/B7"g2f | "E"b3- "E7"b2e ||
"D"fdf "E"eae | "G#/E7"dBd "A"c2e | "D/B7"f2b- "D#/B7"baf | "E"g3- "E7"g2e |\
"F#/D"d2b "E/A"c2a | "D#/B7"BcA "E7"GFE | "Bm"F2B "E7"GFG |1 "A"A3 a2a :|2 "A"A3 A3 |]
